modules/coreui-icons-free/icons/grain.svg

<!-- Generated by IcoMoon.io -->
<svg version="1.1" xmlns="http://www.w3.org/2000/svg" width="24" height="24" viewBox="0 0 24 24">
<title>grain</title>
<path d="M4.125 6c1.45 0 2.625-1.175 2.625-2.625s-1.175-2.625-2.625-2.625c-1.45 0-2.625 1.175-2.625 2.625v0c0.002 1.449 1.176 2.623 2.625 2.625h0zM4.125 2.25c0.621 0 1.125 0.504 1.125 1.125s-0.504 1.125-1.125 1.125c-0.621 0-1.125-0.504-1.125-1.125v0c0.001-0.621 0.504-1.124 1.125-1.125h0z"></path>
<path d="M9.375 11.75c1.45 0 2.625-1.175 2.625-2.625s-1.175-2.625-2.625-2.625c-1.45 0-2.625 1.175-2.625 2.625v0c0.002 1.449 1.176 2.623 2.625 2.625h0zM9.375 8c0.621 0 1.125 0.504 1.125 1.125s-0.504 1.125-1.125 1.125c-0.621 0-1.125-0.504-1.125-1.125v0c0.001-0.621 0.504-1.124 1.125-1.125h0z"></path>
<path d="M4.125 12.25c-1.45 0-2.625 1.175-2.625 2.625s1.175 2.625 2.625 2.625c1.45 0 2.625-1.175 2.625-2.625v0c-0.002-1.449-1.176-2.623-2.625-2.625h-0zM4.125 16c-0.621 0-1.125-0.504-1.125-1.125s0.504-1.125 1.125-1.125c0.621 0 1.125 0.504 1.125 1.125v0c-0.001 0.621-0.504 1.124-1.125 1.125h-0z"></path>
<path d="M9.375 18c-1.45 0-2.625 1.175-2.625 2.625s1.175 2.625 2.625 2.625c1.45 0 2.625-1.175 2.625-2.625v0c-0.002-1.449-1.176-2.623-2.625-2.625h-0zM9.375 21.75c-0.621 0-1.125-0.504-1.125-1.125s0.504-1.125 1.125-1.125c0.621 0 1.125 0.504 1.125 1.125v0c-0.001 0.621-0.504 1.124-1.125 1.125h-0z"></path>
<path d="M14.625 6c1.45 0 2.625-1.175 2.625-2.625s-1.175-2.625-2.625-2.625c-1.45 0-2.625 1.175-2.625 2.625v0c0.002 1.449 1.176 2.623 2.625 2.625h0zM14.625 2.25c0.621 0 1.125 0.504 1.125 1.125s-0.504 1.125-1.125 1.125c-0.621 0-1.125-0.504-1.125-1.125v0c0.001-0.621 0.504-1.124 1.125-1.125h0z"></path>
<path d="M19.875 11.75c1.45 0 2.625-1.175 2.625-2.625s-1.175-2.625-2.625-2.625c-1.45 0-2.625 1.175-2.625 2.625v0c0.002 1.449 1.176 2.623 2.625 2.625h0zM19.875 8c0.621 0 1.125 0.504 1.125 1.125s-0.504 1.125-1.125 1.125c-0.621 0-1.125-0.504-1.125-1.125v0c0.001-0.621 0.504-1.124 1.125-1.125h0z"></path>
<path d="M14.625 12.25c-1.45 0-2.625 1.175-2.625 2.625s1.175 2.625 2.625 2.625c1.45 0 2.625-1.175 2.625-2.625v0c-0.002-1.449-1.176-2.623-2.625-2.625h-0zM14.625 16c-0.621 0-1.125-0.504-1.125-1.125s0.504-1.125 1.125-1.125c0.621 0 1.125 0.504 1.125 1.125v0c-0.001 0.621-0.504 1.124-1.125 1.125h-0z"></path>
<path d="M19.875 18c-1.45 0-2.625 1.175-2.625 2.625s1.175 2.625 2.625 2.625c1.45 0 2.625-1.175 2.625-2.625v0c-0.002-1.449-1.176-2.623-2.625-2.625h-0zM19.875 21.75c-0.621 0-1.125-0.504-1.125-1.125s0.504-1.125 1.125-1.125c0.621 0 1.125 0.504 1.125 1.125v0c-0.001 0.621-0.504 1.124-1.125 1.125h-0z"></path>
</svg>

<svg xmlns="http://www.w3.org/2000/svg" width="24" height="24" viewBox="0 0 24 24"><path d="M4.125 6A2.625 2.625 0 101.5 3.375 2.629 2.629 0 004.125 6zm0-3.75A1.125 1.125 0 113 3.375 1.127 1.127 0 014.125 2.25zM9.375 11.75A2.625 2.625 0 106.75 9.125a2.629 2.629 0 002.625 2.625zm0-3.75A1.125 1.125 0 118.25 9.125 1.127 1.127 0 019.375 8zM4.125 12.25a2.625 2.625 0 102.625 2.625 2.629 2.629 0 00-2.625-2.625zm0 3.75a1.125 1.125 0 111.125-1.125A1.127 1.127 0 014.125 16zM9.375 18A2.625 2.625 0 1012 20.625 2.629 2.629 0 009.375 18zm0 3.75a1.125 1.125 0 111.125-1.125 1.127 1.127 0 01-1.125 1.125zM14.625 6A2.625 2.625 0 1012 3.375 2.629 2.629 0 0014.625 6zm0-3.75A1.125 1.125 0 1113.5 3.375a1.127 1.127 0 011.125-1.125zM19.875 11.75a2.625 2.625 0 10-2.625-2.625 2.629 2.629 0 002.625 2.625zm0-3.75a1.125 1.125 0 11-1.125 1.125A1.127 1.127 0 0119.875 8zM14.625 12.25a2.625 2.625 0 102.625 2.625 2.629 2.629 0 00-2.625-2.625zm0 3.75a1.125 1.125 0 111.125-1.125A1.127 1.127 0 0114.625 16zM19.875 18a2.625 2.625 0 102.625 2.625A2.629 2.629 0 0019.875 18zm0 3.75A1.125 1.125 0 1121 20.625a1.127 1.127 0 01-1.125 1.125z"/></svg>
